coreui/free/cil-opacity.svg

<svg xmlns="http://www.w3.org/2000/svg" viewBox="0 0 512 512">
  <path fill="var(--ci-primary-color, currentColor)" d="M285.177,179l15.513-3.914-7.827-31.028-15.514,3.913a176.937,176.937,0,0,0-129.3,133.557l-3.407,15.633,31.266,6.814,3.406-15.634A145.559,145.559,0,0,1,285.177,179Z" class="ci-primary"/>
  <path fill="var(--ci-primary-color, currentColor)" d="M363.624,147.871C343.733,72.077,274.643,16,192.7,16,95.266,16,16,95.266,16,192.7c0,82.617,57,152.163,133.735,171.4A176.769,176.769,0,0,0,320.7,496c97.431,0,176.7-79.266,176.7-176.695C497.392,238.071,441.64,167.336,363.624,147.871ZM48,192.7C48,112.91,112.91,48,192.7,48s144.7,64.91,144.7,144.7-64.911,144.7-144.7,144.7S48,272.481,48,192.7ZM320.7,464c-60.931,0-115.21-38.854-135.843-94.792,2.6.115,5.214.184,7.843.184a176.862,176.862,0,0,0,32.7-3.047l97.625,97.625C322.247,463.983,321.473,464,320.7,464Zm41.528-6.083L260.26,355.954a176.9,176.9,0,0,0,43.662-26.072L408.37,434.33A144.385,144.385,0,0,1,362.223,457.917Zm69.3-45.692L326.851,307.557a177.082,177.082,0,0,0,27.911-44.5L457.67,365.964A144.661,144.661,0,0,1,431.519,412.225Zm33.594-84.073-99.42-99.42a176.785,176.785,0,0,0,3.7-36.036c0-3.285-.1-6.547-.276-9.787a145.054,145.054,0,0,1,96.276,136.4C465.392,322.276,465.291,325.224,465.113,328.152Z" class="ci-primary"/>
</svg>

<svg viewBox="0 0 512 512" xmlns="http://www.w3.org/2000/svg"><g><path d="M285.177 179l15.51-3.92 -7.83-31.03 -15.52 3.91 -.001-.001c-64.9 16.46-114.95 68.15-129.3 133.55l-3.41 15.63 31.26 6.81 3.4-15.64 0-.001c11.9-53.47 52.81-95.72 105.863-109.35Z"/><path d="M363.624 147.871C343.72 72.07 274.64 16 192.69 16c-97.44 0-176.7 79.266-176.7 176.7 0 82.61 57 152.16 133.73 171.4h-.001c20.39 77.7 90.62 131.89 170.96 131.9 97.43 0 176.7-79.27 176.7-176.695 -.01-81.24-55.76-151.969-133.78-171.434ZM48 192.691c0-79.79 64.91-144.7 144.7-144.7 79.79 0 144.7 64.91 144.7 144.7 0 79.79-64.911 144.7-144.7 144.7 -79.79 0-144.7-64.92-144.7-144.7Zm272.7 271.3c-60.94 0-115.21-38.86-135.843-94.8 2.6.11 5.21.18 7.84.18v0c10.97 0 21.91-1.02 32.7-3.05l97.625 97.625c-.78.01-1.56.03-2.33.03Zm41.52-6.09L260.25 355.93v0c15.73-6.55 30.43-15.33 43.66-26.08l104.44 104.44v-.001c-13.84 10.58-29.47 18.57-46.15 23.58Zm69.3-45.7l-104.68-104.67v0c11.46-13.37 20.87-28.37 27.91-44.5l102.9 102.9v0c-5.79 16.9-14.66 32.58-26.16 46.26Zm33.59-84.08l-99.42-99.42v0c2.46-11.86 3.7-23.93 3.7-36.04 0-3.29-.1-6.55-.28-9.79v0c57.66 20.58 96.18 75.17 96.27 136.4 -.01 2.96-.12 5.91-.29 8.84Z"/></g></svg>
